iblrig/gui/resources/icon_validation_skip.svg

<?xml version="1.0" encoding="UTF-8" standalone="no"?>
<!-- Created with Inkscape (http://www.inkscape.org/) -->

<svg
   width="800"
   height="800"
   viewBox="0 0 211.66667 211.66667"
   version="1.1"
   id="svg1"
   inkscape:version="1.3 (0e150ed6c4, 2023-07-21)"
   xmlns:inkscape="http://www.inkscape.org/namespaces/inkscape"
   xmlns:sodipodi="http://sodipodi.sourceforge.net/DTD/sodipodi-0.dtd"
   xmlns="http://www.w3.org/2000/svg"
   xmlns:svg="http://www.w3.org/2000/svg">
  <sodipodi:namedview
     id="namedview1"
     pagecolor="#ffffff"
     bordercolor="#000000"
     borderopacity="0.25"
     inkscape:showpageshadow="2"
     inkscape:pageopacity="0.0"
     inkscape:pagecheckerboard="0"
     inkscape:deskcolor="#d1d1d1"
     inkscape:document-units="px"
     inkscape:zoom="0.36213173"
     inkscape:cx="557.80806"
     inkscape:cy="84.223494"
     inkscape:window-width="1920"
     inkscape:window-height="1009"
     inkscape:window-x="-8"
     inkscape:window-y="-8"
     inkscape:window-maximized="1"
     inkscape:current-layer="layer1" />
  <defs
     id="defs1" />
  <g
     inkscape:label="Layer 1"
     inkscape:groupmode="layer"
     id="layer1">
    <path
       id="path1"
       style="fill:#808080;stroke-width:0.314788"
       d="M 105.83334 0 C 47.383254 -3.3137055e-06 -3.3137056e-06 47.383254 0 105.83334 C -4.293613e-14 130.92956 8.7532084 153.97072 23.348963 172.11198 C 57.259084 137.52103 137.68798 57.421634 172.12386 23.358265 C 153.98081 8.7568243 130.93498 -4.7365358e-14 105.83334 0 z M 188.50891 39.797571 L 39.797571 188.50891 C 57.901809 202.98839 80.848149 211.66667 105.83334 211.66667 C 164.28341 211.66667 211.66667 164.28341 211.66667 105.83334 C 211.66667 80.848149 202.98839 57.901809 188.50891 39.797571 z " />
  </g>
</svg>

<?xml version="1.0" encoding="UTF-8"?>
<svg width="800" height="800" version="1.1" viewBox="0 0 211.67 211.67" xmlns="http://www.w3.org/2000/svg">
 <path d="m105.83 0c-58.45-3.3137e-6 -105.83 47.383-105.83 105.83-4.2936e-14 25.096 8.7532 48.137 23.349 66.279 33.91-34.591 114.34-114.69 148.77-148.75-18.143-14.601-41.189-23.358-66.291-23.358zm82.676 39.798-148.71 148.71c18.104 14.479 41.051 23.158 66.036 23.158 58.45 0 105.83-47.383 105.83-105.83 0-24.985-8.6783-47.932-23.158-66.036z" fill="#bfbfbf" stroke-width=".31479"/>
</svg>
